!!!COM: Anonymous
!!!OTL@@LAT: O bone Jesu
!!!TXO: Latin
!!!ODT: 
!!!GTL: Hymnbook L 1642
!!!ARL: Biblioteka Diecezjalna w Sandomierzu 
!!!voices:	4
**kern	**text	**kern	**text	**kern	**text	**kern	**text
*staff4	*staff4	*staff3	*staff3	*staff2	*staff2	*staff1	*staff1
*I"Basso	*	*I"Canto III	*	*I"Canto II	*	*I"Canto I	*
=1-	=1-	=1-	=1-	=1-	=1-	=1-	=1-
*clefF4	*	*clefG2	*	*clefG2	*	*clefG2	*
*k[b-]	*	*k[b-]	*	*k[b-]	*	*k[b-]	*
*met(c|)	*	*met(c|)	*	*met(c|)	*	*met(c|)	*
*M2/2	*	*M2/2	*	*M2/2	*	*M2/2	*
1D	O	1f#	O	1a	O	1dd	O
=2	=2	=2	=2	=2	=2	=2	=2
2G\	bo-	2g/	bo-	2b-\	bo-	2dd\	bo-
2F#\	-ne	2a/	-ne	2a/	-ne	2dd\	-ne
=3	=3	=3	=3	=3	=3	=3	=3
1G	Je-	1b-	Je-	1g	Je-	1dd	Je-
=4	=4	=4	=4	=4	=4	=4	=4
1D	-su	1a	-su	1f#	-su	1dd	-su
=5	=5	=5	=5	=5	=5	=5	=5
1D	o	1a	o	1dd	o	1ff#	o
=6	=6	=6	=6	=6	=6	=6	=6
2G\	bo-	2b-\	bo-	2dd\	bo-	2gg\	bo-
2F#\	-ne	2a/	-ne	2a/	-ne	2dd\	-ne
=7	=7	=7	=7	=7	=7	=7	=7
1G	Je-	1g	Je-	1b-	Je-	1dd	Je-
=8	=8	=8	=8	=8	=8	=8	=8
1D	-su	1f#	-su	1a	-su	1dd	-su
=9	=9	=9	=9	=9	=9	=9	=9
1D	ex-	1a	ex-	1a	ex-	1dd	ex-
=10	=10	=10	=10	=10	=10	=10	=10
2G\	-au-	2.b-\	-au-	2b-\	-au-	2dd\	-au-
2E-\	-di	.	.	2g/	-di	4b-\	-di
.	.	4g/	-di	.	.	4cc\	.
=11	=11	=11	=11	=11	=11	=11	=11
1D	me	1a	me	1dd	me	1dd	me
=12	=12	=12	=12	=12	=12	=12	=12
2r	.	2r	.	2r	.	2r	.
2D\	ex-	2f#/	ex-	2a/	ex-	2dd\	ex-
=13	=13	=13	=13	=13	=13	=13	=13
2BB-/	-au-	2g/	-au-	2b-\	-au-	2dd\	-au-
2GG/	-di	2g/	-di	2b-\	-di	2dd\	-di
=14	=14	=14	=14	=14	=14	=14	=14
1D	me	1f#i	me	1a	me	1dd	me
=15	=15	=15	=15	=15	=15	=15	=15
1D	Et	1b-	Et	1dd	Et	1ff	Et
=16	=16	=16	=16	=16	=16	=16	=16
2F\	ne	2a/	ne	2cc\	ne	2ff\	ne
2D\	per-	2f/	per-	2dd\	per-	2ff\	per-
=17	=17	=17	=17	=17	=17	=17	=17
2E-\	-mi-	2g/	-mi-	2b-\	-mi-	2ee-\	-mi-
2C/	-tas	2a/	-tas	2cc\	-tas	2ee-\	-tas
=18	=18	=18	=18	=18	=18	=18	=18
1BB-	me	1b-	me	1dd	me	1dd	me
=19	=19	=19	=19	=19	=19	=19	=19
2BB-/	se-	2f/	se-	2b-\	se-	2dd\	se-
2BB-/	-pa-	2f/	-pa-	2b-\	-pa-	2dd\	-pa-
=20	=20	=20	=20	=20	=20	=20	=20
2E-\	-ra-	2g/	-ra-	2b-\	-ra-	2ee-\	-ra-
2BB-/	-ri	2f/	-ri	2b-\	-ri	2dd\	-ri
=21	=21	=21	=21	=21	=21	=21	=21
1C	a	1e-	a	1g	a	1cc	a
=22	=22	=22	=22	=22	=22	=22	=22
1GG	te	1d	te	1g	te	1bn	te
=23	=23	=23	=23	=23	=23	=23	=23
2F\	Ab	2a/	ab	2cc\	Ab	2ff\	Ab
2F\	ho-	2a/	ho-	2cc\	ho-	2ff\	ho-
=24	=24	=24	=24	=24	=24	=24	=24
2D\	-ste	2f/	-ste	2dd\	-ste	2ff\	-ste
2BB-/	ma-	[2b-\	ma-	2dd\	ma-	2ff\	ma-
=25	=25	=25	=25	=25	=25	=25	=25
1F	-li-	4b-\]	.	1cc	-li-	1ff	-li-
.	.	8a/L	.	.	.	.	.
.	.	8g/J	.	.	.	.	.
.	.	2a/	-li-	.	.	.	.
=26	=26	=26	=26	=26	=26	=26	=26
1BB-	-gno	1b-	-gno	1dd	-gno	1ff	-gno
=27	=27	=27	=27	=27	=27	=27	=27
2BB-/	de-	2b-\	de-	2dd\	de-	2ff\	de-
2F\	-fen-	2a/	-fen-	2cc\	-fen-	2ff\	-fen-
=28	=28	=28	=28	=28	=28	=28	=28
1G	-de	1g	-de	1b-	-de	1dd	-de
=29	=29	=29	=29	=29	=29	=29	=29
1D	me	1f#	me	1a	me	1dd	me
=30	=30	=30	=30	=30	=30	=30	=30
2E-\	de-	2g/	de-	2b-\	de-	2ee-\	de-
2BB-/	-fen-	2f/	-fen-	2b-\	-fen-	2dd\	-fen-
=31	=31	=31	=31	=31	=31	=31	=31
1C	-de	1e-	-de	1g	-de	1cc	-de
=32	=32	=32	=32	=32	=32	=32	=32
1GG	me	1d	me	1g	me	1bni	me
=33	=33	=33	=33	=33	=33	=33	=33
2F\	et	2f/	et	2a/	et	2cc\	et
2F\	po-	2f/	po-	2a/	po-	2cc\	po-
=34	=34	=34	=34	=34	=34	=34	=34
2F\	-ne	2a/	-ne	2a/	-ne	2cc\	-ne
2D\	me	2a/	me	2f/	me	2dd\	me
=35	=35	=35	=35	=35	=35	=35	=35
2E-\	iux-	2g/	iux-	2g/	iux-	2b-\	iux-
2C/	-ta	2c/	-ta	2a/	-ta	2cc\	-ta
=36	=36	=36	=36	=36	=36	=36	=36
1BB-	te	1f	te	1b-	te	1dd	te
=37	=37	=37	=37	=37	=37	=37	=37
2BB-/	et	2b-\	et	2dd\	et	2ff\	et
2BB-/	po-	2b-\	po-	2dd\	po-	2ff\	po-
=38	=38	=38	=38	=38	=38	=38	=38
2AA/	-ne	2cc\	-ne	2.cc\	-ne	2ff\	-ne
2FF/	me	2cc\	me	.	.	2ff\	me
.	.	.	.	4a/	me	.	.
=39	=39	=39	=39	=39	=39	=39	=39
2G\	iux-	2b-\	iux-	2b-\	iux-	2dd\	iux-
2E-\	-ta	2g/	-ta	2cc\	-ta	2gg\	-ta
=40	=40	=40	=40	=40	=40	=40	=40
2D\	te	2a/	te	2dd\	te	2ff#\	te
2C/	Lau-	2cc\	Lau-	2ee-\	Lau-	2gg\	Lau-
=41	=41	=41	=41	=41	=41	=41	=41
2G\	-dem	2b-\	-dem	2dd\	-dem	2gg\	-dem
2E-i\	te	2g/	te	2cc\	te	2gg\	te
=42	=42	=42	=42	=42	=42	=42	=42
2F\	Do-	2a/	Do-	2cc\	Do-	2ff\	Do-
2D\	-mi-	2f/	-mi-	2a/	-mi-	2ff\	-mi-
=43	=43	=43	=43	=43	=43	=43	=43
2C/	-num	2g/	-num	2cc\	-num	2ee-i\	-num
[2F\	Sal-	[2a/	Sal-	[2cc\	Sal-	[2ff\	Sal-
=44	=44	=44	=44	=44	=44	=44	=44
2F\]	.	2a/]	.	2cc\]	.	2ff\]	.
2D\	-va-	2f/	-va-	2dd\	-va-	2ff\	-va-
=45	=45	=45	=45	=45	=45	=45	=45
2E-\	-to-	2g/	-to-	2b-\	-to-	2ee-\	-to-
2C/	-rem	2a/	-rem	2cc\	-rem	2ee-\	-rem
=46	=46	=46	=46	=46	=46	=46	=46
1BB-	me-	1b-	me-	1dd	me-	2dd\	me-
.	.	.	.	.	.	2ff\	.
=47	=47	=47	=47	=47	=47	=47	=47
1FF	-um	1a	-um	1cc	-um	1ff	-um
=48	=48	=48	=48	=48	=48	=48	=48
2r	.	2r	.	2r	.	2r	.
[2F\	Sal-	[2cc\	Sal-	[2a/	Sal-	[2ff\	Sal-
=49	=49	=49	=49	=49	=49	=49	=49
2F\]	.	2cc\]	.	2a/]	.	2ff\]	.
2BB-/	-va-	2dd\	-va-	2b-\	-va-	2ff\	-va-
=50	=50	=50	=50	=50	=50	=50	=50
2E-\	-to-	2b-\	-to-	2g/	-to-	2ee-\	-to-
2C/	-rem	2cc\	-rem	2a/	-rem	2ee-\	-rem
=51	=51	=51	=51	=51	=51	=51	=51
1BB-	me-	1dd	me-	1b-	me-	1ff	me-
=52	=52	=52	=52	=52	=52	=52	=52
*M3/2	*	*M3/2	*	*M3/2	*	*M3/2	*
[1.F	-um	[1.cc	-um	[1.a	-um	[1.ff	-um
=53	=53	=53	=53	=53	=53	=53	=53
2F\]	.	2cc\]	.	2a/]	.	2ff\]	.
1F	In	1a	In	1cc	In	1ff	In
=54	=54	=54	=54	=54	=54	=54	=54
1.C	sae-	1.g	sae-	1.cc	sae-	1.ee-	sae-
=55	=55	=55	=55	=55	=55	=55	=55
2C/	-cu-	2g/	-cu-	2cc\	-cu-	2ee-i\	-cu-
2C/	-la	2g/	-la	2g/	-la	2ee-\	-la
2C/	in	2g/	in	2cc\	in	2ee-\	in
=56	=56	=56	=56	=56	=56	=56	=56
1.GG	sae-	1.b-	sae-	1.g	sae-	1.gg	sae-
=57	=57	=57	=57	=57	=57	=57	=57
2GG/	-cu-	2b-\	-cu-	2g/	-cu-	2gg\	-cu-
2GG/	-la	2b-\	-la	2g/	-la	2dd\	-la
2GG/	in	2b-\	in	2dd\	in	2gg\	in
=58	=58	=58	=58	=58	=58	=58	=58
1.D	sae-	1.a	sae-	1.dd	sae-	1.ff	sae-
=59	=59	=59	=59	=59	=59	=59	=59
2D\	-cu-	2a/	-cu-	2a/	-cu-	2ff\	-cu-
2D\	-la	2a/	-la	2dd\	-la	2ff\	-la
!	!	!	!	!	!	!LO:TX:Y=0:t=[  ]	!
2D\	in	2a/	in	2dd\	in	2ff\	in
=60	=60	=60	=60	=60	=60	=60	=60
1.BB-	sae-	1.b-	sae-	1.dd	sae-	1.ff	sae-
=61	=61	=61	=61	=61	=61	=61	=61
2BB-/	-cu-	2b-\	-cu-	2dd\	-cu-	2ff\	-cu-
1BB-	-la	1b-	-la	1dd	-la	1ff	-la
=62	=62	=62	=62	=62	=62	=62	=62
1F	sae-	1a	sae-	1cc	sae-	1ff	sae-
[2F\	-cu-	[2a/	-cu-	[2cc\	-cu-	[2ff\	-cu-
=63	=63	=63	=63	=63	=63	=63	=63
2F\]	.	2a/]	.	2cc\]	.	2ff\]	.
1C	-lo-	1g	-lo-	1cc	-lo-	1ee-	-lo-
=64	=64	=64	=64	=64	=64	=64	=64
1G	-rum	1g	-rum	1b-	-rum	1dd	-rum
[2D\	a-	[2a/	a-	[2a/	a-	[2dd\	a-
=65	=65	=65	=65	=65	=65	=65	=65
1.D]	.	1.a]	.	1.a]	.	1.dd]	.
=66	=66	=66	=66	=66	=66	=66	=66
*met(c|)	*	*met(c|)	*	*met(c|)	*	*met(c|)	*
*M2/2	*	*M2/2	*	*M2/2	*	*M2/2	*
2GG/	-men	1bn	-[men]	2g/	-men	[1dd	-men
4G\	a-	.	.	4b-\	a-	.	.
4F\	.	.	.	4a/	.	.	.
=67	=67	=67	=67	=67	=67	=67	=67
2E-\	.	2.g/	[a]-	4b-\	.	2dd\]	.
.	.	.	.	4a/	.	.	.
2D\	.	.	.	4g/	-men	4gg\	a-
.	.	4a/	.	4f/	.	4ff\	.
=68	=68	=68	=68	=68	=68	=68	=68
2C/	.	4b-\	.	2g/	a-	2ee-\	-men
.	.	4cc\	.	.	.	.	.
2BB-/	-men	2dd\	.	2f/	-men	2dd\	a-
=69	=69	=69	=69	=69	=69	=69	=69
1C	a-	1cc	-men	2g/	a-	4cc\	.
.	.	.	.	.	.	4dd\	.
.	.	.	.	2cc\	-men	4ee-i\	.
.	.	.	.	.	.	4ff\	.
=70	=70	=70	=70	=70	=70	=70	=70
[1GG	.	4b-\	a-	2.dd\	a-	2gg\	.
.	.	4a/	.	.	.	.	.
.	.	4g/	.	.	.	(2dd\	.
.	.	4d/	.	4cc\	.	.	.
=71	=71	=71	=71	=71	=71	=71	=71
1GG]	.	2.g/	.	1b-	.	1dd)	.
.	.	8f/L	.	.	.	.	.
.	.	8e/J	.	.	.	.	.
=72	=72	=72	=72	=72	=72	=72	=72
[1D	-men.	[1f#i	-men.	[1a	-men.	[1dd	-men.
=73	=73	=73	=73	=73	=73	=73	=73
1D]	.	1f#]	.	1a]	.	1dd]	.
==	==	==	==	==	==	==	==
*-	*-	*-	*-	*-	*-	*-	*-
!!!GTL: Hymnbook L 1642
!!!EFL: 34/39
!!!YEM: Creative Commons CC/BY/NC/SA 4.0
!!!ENC: Marcin Konik
!!!END: 2015-02-23 
!!!EED: Marcin Konik
!!!EEV: 
!!!ONB: Translated from MusicXML and edited by Marcin Konik
!!!CharacterEncoding: utf-8
!!!RDF**kern: i=editorial accidental
!!muse2ps: z14jc180F
!!title: @{OTL}, @{GTL}: @{pag}, ed. @{ENC}
